!! J.S. Bach "Allegro" from Sonata No. 2, for solo violin, BWV 1003.
!! From 'Neue Ausgabe Saemtlicher Werke' Serie VI: Kammermusikwerke,
!! Band 1 ('Werke fuer Violine') Baerenreiter Kassel (Basel) 1958; pp.26-29
!! This file has been error-checked using the double-entry method.
!! NOTE: The repeats at bar 24 and at the end of the work have been
!!       expanded in this encoding.
**kern
*M2/2
=1
16a
16cc
16ee
16aa
16ee
16dd
16cc
16b
16a
16cc
16ee
16aa
16ee
16dd
16cc
16b
=2
{16a
32cc
32dd
16ee}
16e
16a
16cc
16ee
16g#
{16a
32cc
32dd
16ee}
16e
16a
16cc
16ee
16g#
=3
16a
32b
32cc
16dd
32cc
32b
16cc
32dd
32ee
16ff
32ee
32dd
16ee
16aa
16ff
16dd
16ee
16dd
16cc
16b
=4
16a
32b
32cc
16dd
32cc
32b
16cc
32dd
32ee
16ff
32ee
32dd
16ee
16aa
16ff
16dd
16ee
16dd
16cc
16b
=5
16a
16cc
16ee
16aa
16ccc
16ee
16cc
16a
16g#
16b
16ee
16gg#
16bb
16dd
16cc
16b
=6
16a
16cc
16ee
16aa
16ccc
16ee
16cc
16a
16g#
16b
16ee
16gg#
16bb
16dd
16cc
16b
=7
16a
16cc
16ee
16ggn
16ff
16cc
16b
16a
16gn
16b
16dd
16ff
16ee
16b
16a
16g
=8
16f
16a
16cc
16ee
16dd
16cc
16b
16a
16g#
16ee
16b
16g#
16e
16f
16d
16e
=9
16c#
16a
16ee
16gn
16f
16d
16f
16cn
16B
16g
16dd
16f
16e
16c#
16e
16B
=10
16A
16f
16cc
16e
16d
16B
16d
16A
16G#
16e
16b
16d
16c
16A
16d
16B
=11
16e
16c
16A
16c
16e
16a
16cc
16e
16d#
16cc
16b
16a
16ff#
16a
16g
16f#
=12
16e
16B
16G
16B
16e
16g
16b
16dn
16c#
16b
16a
16g
16ee
16gg
16ff#
16ee
=13
16dd#
16a
16f#
16a
16dd#
16ff#
16aa
16ccn
16b
16f#
16d#
16f#
16b
16dd#
16ff#
16aa
=14
{16gg
32bb
32aa
16gg}
16ff#
16ee
16ccc
{16a
32b
32cc}
{16dn
32aa
32gg
16ff#}
16ee
16ddn
16bb
{16g
32a
32b}
=15
{16c
32gg
32ff#
16ee}
16dd
{16cc
32aa
32gg
16ff#}
16ee
{16dd#
32ff#
32dd#
16b}
16a
16g
16ee
16f#
16ddn
=16
{16e
32dd
32b
16g}
16fn
16e
16cc
16d
16b
{16c
32b
32g
16e}
16d
16c
16a
16B
16g
=17
16A
32B
32c
16d
32c
32B
16c
32d
32e
16f
32e
32d
16e
32f#
32g
16a
32g
32f#
16g
32a
32b
16cc
32b
32a
=18
{16ff#
16cc
16d#}
16cc
16b
16a
16g
16f#
16g
16a
16b
16cc
8.f# 4B
16e
=19
{16e
32c#
32dn
16e}
16a
{16f#
32d#
32e
16f#}
16b
{16g
32e
32f#
16g}
16ccn
{16a
32f#
32g
16a}
16ddn
=20
16b
16g
16b
16dd#
16ee
16gg
16bb
16ddn
16cc
16a
16cc
16ee
16ff
16aa
16ccc
16ee
=21
16b
16dd#
16ff#
16bb
{16ff#
16ee
16dd#}
16cc#
16b
16dd#
16ff#
16aa
{16ff#
16ee
16dd#}
16cc#
=22
16b
16dd#
16ee
16gg
{16ee
16ddn
16ccn}
16b
16a
16b
16cc
16ff#
{16cc
16b
16a}
16g
=23
16f#
16g
16a
16cc
{16a
16g
16f#}
16e
16d#
16f#
16a
16cc
16b
16a
16g
16f#
=24
{16g
32b
32g
16e}
16B
16f#
16a
16ee
16dd#
2ee
=25
16a
16cc
16ee
16aa
16ee
16dd
16cc
16b
16a
16cc
16ee
16aa
16ee
16dd
16cc
16b
=26
{16a
32cc
32dd
16ee}
16e
16a
16cc
16ee
16g#
{16a
32cc
32dd
16ee}
16e
16a
16cc
16ee
16g#
=27
16a
32b
32cc
16dd
32cc
32b
16cc
32dd
32ee
16ff
32ee
32dd
16ee
16aa
16ff
16dd
16ee
16dd
16cc
16b
=28
16a
32b
32cc
16dd
32cc
32b
16cc
32dd
32ee
16ff
32ee
32dd
16ee
16aa
16ff
16dd
16ee
16dd
16cc
16b
=29
16a
16cc
16ee
16aa
16ccc
16ee
16cc
16a
16g#
16b
16ee
16gg#
16bb
16dd
16cc
16b
=30
16a
16cc
16ee
16aa
16ccc
16ee
16cc
16a
16g#
16b
16ee
16gg#
16bb
16dd
16cc
16b
=31
16a
16cc
16ee
16ggn
16ff
16cc
16b
16a
16gn
16b
16dd
16ff
16ee
16b
16a
16g
=32
16f
16a
16cc
16ee
16dd
16cc
16b
16a
16g#
16ee
16b
16g#
16e
16f
16d
16e
=33
16c#
16a
16ee
16gn
16f
16d
16f
16cn
16B
16g
16dd
16f
16e
16c#
16e
16B
=34
16A
16f
16cc
16e
16d
16B
16d
16A
16G#
16e
16b
16d
16c
16A
16d
16B
=35
16e
16c
16A
16c
16e
16a
16cc
16e
16d#
16cc
16b
16a
16ff#
16a
16g
16f#
=36
16e
16B
16G
16B
16e
16g
16b
16dn
16c#
16b
16a
16g
16ee
16gg
16ff#
16ee
=37
16dd#
16a
16f#
16a
16dd#
16ff#
16aa
16ccn
16b
16f#
16d#
16f#
16b
16dd#
16ff#
16aa
=38
{16gg
32bb
32aa
16gg}
16ff#
16ee
16ccc
{16a
32b
32cc}
{16dn
32aa
32gg
16ff#}
16ee
16ddn
16bb
{16g
32a
32b}
=39
{16c
32gg
32ff#
16ee}
16dd
{16cc
32aa
32gg
16ff#}
16ee
{16dd#
32ff#
32dd#
16b}
16a
16g
16ee
16f#
16ddn
=40
{16e
32dd
32b
16g}
16fn
16e
16cc
16d
16b
{16c
32b
32g
16e}
16d
16c
16a
16B
16g
=41
16A
32B
32c
16d
32c
32B
16c
32d
32e
16f
32e
32d
16e
32f#
32g
16a
32g
32f#
16g
32a
32b
16cc
32b
32a
=42
{16ff#
16cc
16d#}
16cc
16b
16a
16g
16f#
16g
16a
16b
16cc
8.f# 4B
16e
=43
{16e
32c#
32dn
16e}
16a
{16f#
32d#
32e
16f#}
16b
{16g
32e
32f#
16g}
16ccn
{16a
32f#
32g
16a}
16ddn
=44
16b
16g
16b
16dd#
16ee
16gg
16bb
16ddn
16cc
16a
16cc
16ee
16ff
16aa
16ccc
16ee
=45
16b
16dd#
16ff#
16bb
{16ff#
16ee
16dd#}
16cc#
16b
16dd#
16ff#
16aa
{16ff#
16ee
16dd#}
16cc#
=46
16b
16dd#
16ee
16gg
{16ee
16ddn
16ccn}
16b
16a
16b
16cc
16ff#
{16cc
16b
16a}
16g
=47
16f#
16g
16a
16cc
{16a
16g
16f#}
16e
16d#
16f#
16a
16cc
16b
16a
16g
16f#
=48
{16g
32b
32g
16e}
16B
16f#
16a
16ee
16dd#
2ee
=49
16e
16ee
16gg
16bb
16gg
16ee
16dd#
16ee
16e
16ee
16gg
16bb
16gg
16ee
16dd#
16ee
=50
{16e
32g
32a
16b}
16B
16e
16g
16b
16d#
{16e
32g
32a
16b}
16B
16e
16g
16b
16d#
=51
16e
32f#
32g
16a
32g
32f#
16g
32a
32b
16cc
32b
32a
16b
32g
32a
16b
32cc#
32dd#
{16ee
32b
32a
16g}
16f#
=52
16e
32f#
32g
16a
32g
32f#
16g
32a
32b
16cc
32b
32a
16b
32g
32a
16b
32cc#
32dd#
{16ee
32b
32a
16g}
16f#
=53
16e
16g
16b
16ee
16gg
16bb
16gg
16ee
16dd#
16ff#
16dd#
16b
16f#
16a
16g
16f#
=54
16e
16g
16b
16ee
16gg
16bb
16gg
16ee
16dd#
16ff#
16dd#
16b
16f#
16a
16g
16f#
=55
16e
16g
16b
16ddn
16cc
16g
16f#
16e
16d
16f#
16a
16cc
16b
16f#
16e
16d
=56
16c
16e
16g
16b
16a
16g
16f#
16e
16d#
16b
16f#
16d#
16B
16c
16A
16B
=57
{16G
32e
32f#
16g}
16b
16ee
16ff#
16dd
16ee
{16cc
32ee
32dd
16cc}
16b
16a
16b
16g
16a
=58
{16f#
32d
32e
16f#}
16a
16dd
16ee
16cc
16dd
{16b
32g
32a
16b}
16dd
16gg
16aa
16ff#
16gg
=59
16ee
16gg
16ee
16b
16cc
16e
16g
16cc
16dd
16gg
16dd
16a
16b
16d
16g
16b
=60
16cc
16gg
16cc
16a
{16d
32ff#
32gg
16aa}
16cc
16b
16gg
16dd
16b
16g
16a
16fn
16g
=61
16e
16cc
16gg
16b-
16a
16f
16a
16e
16d
16bn
16ff
16a
16g
16e
16g
16d
=62
16c
16a
16ee
16g
16f
16d
16f
16c
16B
16g
16dd
16f
16e
16c
16f
16d
=63
{16g
16e
16c}
16e
16g
16e
16a
16f
{16b-
16g
16e}
16g
16b-
16g
16cc
16g
=64
16a
16f
16a
16cc
16ff
16dd
16aa
16cc
16bn
16g
16b
16dd
16gg
16ee
16bb
16dd
=65
16cc
16a
16cc
16ee
16aa
16ff
16ccc
16ee
16dd
16b
16dd
16gg
16bb
16gg
16ddd
16ff
=66
16ee
32gg
32ff
16ee
32ff
32gg
16aa
32b
32cc
16dd
32ee
32ff
16gg
32a
32b
16cc
32dd
32ee
16ff
32g
32a
16b
32cc
32dd
=67
16ee
32c
32d
16e
32f
32g
16a
16f
16dd
16f
{16G
16f
16b}
16dd
{16cc
16b}
{16a
16g}
=68
{16f
32e
32d
16e}
16cc
{16G
16d
16cc}
16b
{16cc
32ee
32cc
16g}
16f
{16e
32g
32e
16c}
16B-
=69
{16A
16g
16cc#}
16g
16cc#
16g
16ee
16g
{16f
32dd
32a
16f}
16e
{16d
32a
32f
16d}
16cn
=70
{16B
16a
16dd#}
16a
16dd#
16a
16ff#
16a
{16g#
32ee
32b
16g#}
16f#
{16e
32b
32g#
16e}
16dn
=71
{32c
32ee
32ddn
32cc}
{16b
32cc
32dd}
{16cc
32b
32a}
{16g#
32a
32b}
{32c#
32a
32gn
32fn}
{16e
32f
32g}
{16f
32e
32d}
{16c#
32d
32e}
=72
{16d
32ff
32ee
16dd}
16cc
16b
16dd
{16g
32a
32b}
{16cn
32ee
32dd
16cc}
16b
16a
16cc
{16f
32g
32a}
=73
{16B
32dd
32cc
16b}
16a
16g#
16dd
16bb
16dd
{16cc
32a
32b
16cc}
16ff
{16b
32gn
32a
16b}
16ee
=74
{16a
32f
32g
16a}
16cc#
{16dd
32b
32ccn
16dd}
16ff
{16gg#
32ee
32ff#
16gg#}
16bb
{16ddd
32bb
32gg#}
{16ee
32gg#
32bb}
=75
{16ccc
32eee
32ccc
16aa}
16ggn
16ffn
16ddd
16ee
16ccc
{16dd
32ccc
32aa
16ff}
16ee
16dd
16bb
16cc
16aa
=76
{16b
32ff
32dd
16b}
16a
16g#
16dd
16f#
16dd
16e
16g#
16b
16dd
{16ffn
32ee
32dd
16cc}
16b
=77
16cc
16g#
16a
16d#
16e
16cc
16b
32a
32g#
{16a
32fn
32gn
16a}
16f
16e
16dn
16c
16B
=78
{32c
32e
32f#
32g#
16a}
16e
16d
16c
16B
16A
{32B
32c
32d
32e
16fn}
16e
16d
16b
16ff
16a
=79
{32g#
32a
32b
32cc
16dd}
16cc
{16b
32gg#
32aa
16bb}
16dd
{32cc
32ee
32ff#
32gg
16aa}
16cc
16e
16b
16aa
16gg
=80
{16a
16cc#}
{16ggn
16ee}
{16a
16dd}
{16ff#
16dd}
{16g#
16dd}
{16ffn
16dd}
{16gn
16cc}
{16ee
16cc}
=81
{16f#
16a}
{16ee
16a}
{16fn
16dd}
{16aa
16dd}
{16e
16dd
16bb}
16aa
16gg#
16ff#
16ee
16dd
=82
{16cc
32ee
32cc
16a}
16e
16b
16dd
16aa
16gg#
2A
=83
16e
16ee
16gg
16bb
16gg
16ee
16dd#
16ee
16e
16ee
16gg
16bb
16gg
16ee
16dd#
16ee
=84
{16e
32g
32a
16b}
16B
16e
16g
16b
16d#
{16e
32g
32a
16b}
16B
16e
16g
16b
16d#
=85
16e
32f#
32g
16a
32g
32f#
16g
32a
32b
16cc
32b
32a
16b
32g
32a
16b
32cc#
32dd#
{16ee
32b
32a
16g}
16f#
=86
16e
32f#
32g
16a
32g
32f#
16g
32a
32b
16cc
32b
32a
16b
32g
32a
16b
32cc#
32dd#
{16ee
32b
32a
16g}
16f#
=87
16e
16g
16b
16ee
16gg
16bb
16gg
16ee
16dd#
16ff#
16dd#
16b
16f#
16a
16g
16f#
=88
16e
16g
16b
16ee
16gg
16bb
16gg
16ee
16dd#
16ff#
16dd#
16b
16f#
16a
16g
16f#
=89
16e
16g
16b
16ddn
16cc
16g
16f#
16e
16d
16f#
16a
16cc
16b
16f#
16e
16d
=90
16c
16e
16g
16b
16a
16g
16f#
16e
16d#
16b
16f#
16d#
16B
16c
16A
16B
=91
{16G
32e
32f#
16g}
16b
16ee
16ff#
16dd
16ee
{16cc
32ee
32dd
16cc}
16b
16a
16b
16g
16a
=92
{16f#
32d
32e
16f#}
16a
16dd
16ee
16cc
16dd
{16b
32g
32a
16b}
16dd
16gg
16aa
16ff#
16gg
=93
16ee
16gg
16ee
16b
16cc
16e
16g
16cc
16dd
16gg
16dd
16a
16b
16d
16g
16b
=94
16cc
16gg
16cc
16a
{16d
32ff#
32gg
16aa}
16cc
16b
16gg
16dd
16b
16g
16a
16fn
16g
=95
16e
16cc
16gg
16b-
16a
16f
16a
16e
16d
16bn
16ff
16a
16g
16e
16g
16d
=96
16c
16a
16ee
16g
16f
16d
16f
16c
16B
16g
16dd
16f
16e
16c
16f
16d
=97
{16g
16e
16c}
16e
16g
16e
16a
16f
{16b-
16g
16e}
16g
16b-
16g
16cc
16g
=98
16a
16f
16a
16cc
16ff
16dd
16aa
16cc
16bn
16g
16b
16dd
16gg
16ee
16bb
16dd
=99
16cc
16a
16cc
16ee
16aa
16ff
16ccc
16ee
16dd
16b
16dd
16gg
16bb
16gg
16ddd
16ff
=100
16ee
32gg
32ff
16ee
32ff
32gg
16aa
32b
32cc
16dd
32ee
32ff
16gg
32a
32b
16cc
32dd
32ee
16ff
32g
32a
16b
32cc
32dd
=101
16ee
32c
32d
16e
32f
32g
16a
16f
16dd
16f
{16G
16f
16b}
16dd
{16cc
16b}
{16a
16g}
=102
{16f
32e
32d
16e}
16cc
{16G
16d
16cc}
16b
{16cc
32ee
32cc
16g}
16f
{16e
32g
32e
16c}
16B-
=103
{16A
16g
16cc#}
16g
16cc#
16g
16ee
16g
{16f
32dd
32a
16f}
16e
{16d
32a
32f
16d}
16cn
=104
{16B
16a
16dd#}
16a
16dd#
16a
16ff#
16a
{16g#
32ee
32b
16g#}
16f#
{16e
32b
32g#
16e}
16dn
=105
{32c
32ee
32ddn
32cc}
{16b
32cc
32dd}
{16cc
32b
32a}
{16g#
32a
32b}
{32c#
32a
32gn
32fn}
{16e
32f
32g}
{16f
32e
32d}
{16c#
32d
32e}
=106
{16d
32ff
32ee
16dd}
16cc
16b
16dd
{16g
32a
32b}
{16cn
32ee
32dd
16cc}
16b
16a
16cc
{16f
32g
32a}
=107
{16B
32dd
32cc
16b}
16a
16g#
16dd
16bb
16dd
{16cc
32a
32b
16cc}
16ff
{16b
32gn
32a
16b}
16ee
=108
{16a
32f
32g
16a}
16cc#
{16dd
32b
32ccn
16dd}
16ff
{16gg#
32ee
32ff#
16gg#}
16bb
{16ddd
32bb
32gg#}
{16ee
32gg#
32bb}
=109
{16ccc
32eee
32ccc
16aa}
16ggn
16ffn
16ddd
16ee
16ccc
{16dd
32ccc
32aa
16ff}
16ee
16dd
16bb
16cc
16aa
=110
{16b
32ff
32dd
16b}
16a
16g#
16dd
16f#
16dd
16e
16g#
16b
16dd
{16ffn
32ee
32dd
16cc}
16b
=111
16cc
16g#
16a
16d#
16e
16cc
16b
32a
32g#
{16a
32fn
32gn
16a}
16f
16e
16dn
16c
16B
=112
{32c
32e
32f#
32g#
16a}
16e
16d
16c
16B
16A
{32B
32c
32d
32e
16fn}
16e
16d
16b
16ff
16a
=113
{32g#
32a
32b
32cc
16dd}
16cc
{16b
32gg#
32aa
16bb}
16dd
{32cc
32ee
32ff#
32gg
16aa}
16cc
16e
16b
16aa
16gg
=114
{16a
16cc#}
{16ggn
16ee}
{16a
16dd}
{16ff#
16dd}
{16g#
16dd}
{16ffn
16dd}
{16gn
16cc}
{16ee
16cc}
=115
{16f#
16a}
{16ee
16a}
{16fn
16dd}
{16aa
16dd}
{16e
16dd
16bb}
16aa
16gg#
16ff#
16ee
16dd
=116
{16cc
32ee
32cc
16a}
16e
16b
16dd
16aa
16gg#
2A;
==
*-
